flaticon/weather/moon-11.svg

<svg xmlns="http://www.w3.org/2000/svg" width="32" height="32" viewBox="0 0 24 24">
    <path d="M21.601562 18.601562L2.398438 18.601562C2.179688 18.601562 2 18.78125 2 19 2 19.222656 2.179688 19.402344 2.398438 19.402344L21.601562 19.402344C21.820312 19.402344 22 19.222656 22 19 22 18.78125 21.820312 18.601562 21.601562 18.601562zM19.601562 20.601562L4.398438 20.601562C4.179688 20.601562 4 20.78125 4 21 4 21.222656 4.179688 21.402344 4.398438 21.402344L19.601562 21.402344C19.820312 21.402344 20 21.222656 20 21 20 20.78125 19.820312 20.601562 19.601562 20.601562zM18 22.601562L6 22.601562C5.777344 22.601562 5.601562 22.78125 5.601562 23 5.601562 23.222656 5.777344 23.402344 6 23.402344L18 23.402344C18.222656 23.402344 18.398438 23.222656 18.398438 23 18.398438 22.78125 18.222656 22.601562 18 22.601562zM23.601562 16.601562L20.472656 16.601562C21.566406 15.421875 22.359375 13.996094 22.785156 12.425781L23.019531 11.527344 22.195312 11.976562C22.097656 12.03125 22 12.085938 21.902344 12.136719 17.367188 14.40625 11.828125 12.5625 9.554688 8.027344 8.542969 6.007812 8.3125 3.6875 8.902344 1.507812L9.148438.597656 8.324219 1.050781C3.589844 3.644531 1.773438 9.460938 4.191406 14.292969 4.617188 15.140625 5.15625 15.914062 5.792969 16.601562L.398438 16.601562C.179688 16.601562 0 16.78125 0 17 0 17.222656.179688 17.402344.398438 17.402344L23.601562 17.402344C23.820312 17.402344 24 17.222656 24 17 24 16.78125 23.820312 16.601562 23.601562 16.601562zM6.921875 16.601562C6.09375 15.839844 5.414062 14.945312 4.910156 13.933594 2.824219 9.769531 4.160156 4.804688 7.925781 2.234375 7.570312 4.324219 7.882812 6.476562 8.839844 8.386719 11.222656 13.140625 16.90625 15.171875 21.726562 13.097656 21.21875 14.4375 20.40625 15.632812 19.347656 16.601562zM6.921875 16.601562"/>
</svg>

<svg xmlns="http://www.w3.org/2000/svg" width="32" height="32" viewBox="0 0 24 24">
    <path d="M21.602 18.602H2.398a.4.4 0 0 0 0 .8h19.204a.401.401 0 0 0 0-.8zm0 0M19.602 20.602H4.398a.4.4 0 0 0 0 .8h15.204a.401.401 0 0 0 0-.8zm0 0M18 22.602H6a.398.398 0 0 0-.398.398c0 .223.175.402.398.402h12c.223 0 .398-.18.398-.402a.398.398 0 0 0-.398-.398zm0 0M23.602 16.602h-3.13a9.963 9.963 0 0 0 2.313-4.176l.235-.899-.825.45c-.097.054-.195.109-.293.16-4.535 2.27-10.074.425-12.347-4.11a9.192 9.192 0 0 1-.653-6.52l.246-.91-.824.454a9.964 9.964 0 0 0-4.133 13.242 9.995 9.995 0 0 0 1.602 2.309H.398a.4.4 0 0 0 0 .8h23.204a.401.401 0 0 0 0-.8zm-16.68 0a9.168 9.168 0 0 1-2.012-2.668 9.16 9.16 0 0 1 3.016-11.7 9.983 9.983 0 0 0 .914 6.153c2.383 4.754 8.066 6.785 12.887 4.71a9.127 9.127 0 0 1-2.38 3.505zm0 0"/>
</svg>
